X:1
T:Elle sen va de moy
T:Elle sen va de moy
T:Jean de Castro
T:Source : Livre de chansons à 3 parties---Paris---A.le Roy & R.Ballard---1575. Editor : André Vierendeels 21/09/15).
T:Notes : Original clefs : C1, C3, C4 Editorial accidentals above the staff Square bracket indicates ligature
C:Jean de Castro
%%score [ 1 [ 2 3 ] ]
L:1/8
Q:1/4=104
M:2/2
K:F
V:1 treble nm="Superius" snm="S"
V:2 treble-8 nm="Tenor 1" snm="T 1"
V:3 treble-8 nm="Tenor 2" snm="T 2"
V:1
 F4 A2 c2 | B2 A2 G2 F2 | G2 A2 B4 | A8 | z4 z2 F2 | A2 c2 B2 A2- | A2 G2 z2 d2 | c2 A2 G4 | %8
w: El- le sen|va de moy la|mieux ay- mé-|e,|el-|le sen va de|_ moy la|mieux ay- mé-|
 A4 z2 A2 | G2 E2 D4 | C2 c2 c2 c2 | A4 z4 | z2 F2 c2 c2 | dcBA BAGF | G2 G2 F2 F2 | B8- | B4 A4 | %17
w: e, la|mieux ay- mé-|e, el- le sen|va,|el- le sen|va, _ _ _ _ _ _ _|_ cer- tes et|si|_ de-|
 G8 | A4 z2 c2- | c2 G2 z2 B2 | A4 B4- | B2 AG A4 | B8 | z2 B4 B2 | G2 c4 c2 | B8 | A2 c4 A2 | %27
w: meu-|re de-|* dans, de-|dans mon|_ _ _ _|coeur|tel- le-|ment im- pri-|mé-|e, qu'el- le'y|
 B4 G4 | z4 F4 | G4 F2 E2 | D4 D4 | C4 z2 B2 | G4 A4 | G4 z2 G2 | B4 A4 | G2 F2 B4 | A4 c4 | %37
w: se- ra|qu'el-|le'y _ _|_ se-|ra, qu'el-|le'y se-|ra jus-|ques à|ce qu'il meu-|re, jus-|
 d6 c2 | B2 A2 G4 | A4 z2 A2 | G6 G2 | E2 F2 D4 | C4 z4 | c4 F2 G2 | A2 B2 G4 | A4 z4 |] %46
w: ques à|ce qu'il meu-|re, jus-|ques à|ce qu'il meu-|re,|jus- ques à|ce qu'il meu-|re.|
V:2
 z4 c4 | d2 f2 e2 d2 | c2 c2 d2 e2 | f4 e4 | z2 f2 f2 d2 | edef g2 f2 | e3 c d2 f2 | %7
w: El-|le sen va de|moy la mieux ay-|mé- e,|el- le sen|va _ _ _ _ le|mieux _ _ ay-|
 e2 f3 e/d/ e2 | f6 f2 | d2 c2 =B4 | c4 z2 F2 | f2 f2 fedc | d4 z2 f2- | f2 d2 z2 B2 | G2 G2 d4 | %15
w: mé- * * * *|e, la|mieux ay- mé-|e, el-|le sen va, _ _ _|_ cer-|* tes et-|si de- meu-|
 G2 G2 g4- | g2 g2 f4- | f2 ed e4 | f4 z2 f2 | e4 d4 | c4 d4 | c4 c4 | g4 g4- | g2 g2 f4 | %24
w: re, et si|_ de- meu-||re de-|dans- mon|coeur, de-|dans mon|coeur tel-|* le- ment|
 e2 e2 f4- | f2 ed e4 | f4 z2 f2 | d4 e4 | ^c4 z2 d2 | =B4 c4- | c2 =BA B4 | A4 z2 d2 | c6 f2 | %33
w: im- pri- mé-||e, qu'el-|le'y se-|ra, qu'el-|le'y se-||ra, qu'el-|le'y se-|
 e4 e4 | f6 e2 | d2 c2 g4 | c4 a4 | f6 a2 | g2 f2 e4 | f4 z2 f2- | f2 e4 e2 | c2 c2 =B4 | %42
w: ra jus-|ques à|ce qu'il meu-|re, jus-|ques à|ce qu'il meu-|re, jus-|* ques à|ce qu'il meu-|
 c4 z2 f2 | a6 g2 | f2 f2 e4 | f4 z4 |] %46
w: re, jus-|ques à|ce qu'il meu-|re.|
V:3
 z8 | z8 | z8 | d4 ^c4- | c2 d2 B4 | A4 z2 F2 | A2 c2 B2 B2 | c8 | z4 d4 | =B2 c2 G4 | %10
w: |||La mieux|_ ay- mé-|e, el-|le sen va de|moy,|la|mieux ay- mé-|
 A2 F2 c2 c2 | defe dcBA | BcdB c2 F2 | B4 _E4 | B8- | B4 B4 | c8 | C8 | F4 F4 | c4 B4 | F8- | F8 | %22
w: e, el- le sen|va, _ _ _ _ _ _ _|_ _ _ _ _ cer-|tes et|si|_ de-|meu-||re de-|dans mon|coeur,|_|
 z4 _E4- | E2 _E2 B4 | c4 A4 | G8 | F8 | z4 c4 | A4 B4 | G8- | G8 | z4 G4 | E4 F4 | C4 c4 | d6 c2 | %35
w: tel-|* le- ment|im- pri-|mé-|e,|qu'el|le'y se-|ra,|_|qu'el-|le'y se-|ra jus-|ques à|
 B2 A2 G4 | F4 F4 | B6 F2 | G2 A2 c4 | F8 | z4 c4- | c2 F2 G4 | A4 F4 | f6 e2 | d2 B2 c4 | F4 z4 |] %46
w: ce qu'il meu-|re, jus-|ques à|ce qu'il meu-|re,|meu-||re, jus-|ques à|ce qu'il meu-|re.|

